X:1
T:Mazurka
T:Mazurka
T:Claude Debussy
C:Claude Debussy
%%score { ( 1 3 5 ) | ( 2 4 6 ) }
L:1/8
Q:1/4=120
M:3/4
K:A
V:1 treble nm="Piano" snm="Pno."
V:3 treble 
V:5 treble 
V:2 bass 
V:4 bass 
V:6 bass 
V:1
"^Scherzando. (assez animé)" z6 | z6 |!p! z2 (GA G2) | z2[Q:1/4=120]"^T"!<(! (3FGA (3cAF!<)! | %4
!p! z2 (GB GA) | (3GFE D[C=E] [DF]2 | z2 GA G2 | z2!<(! (3FGA (3cAF!<)! | z2!<(! GB G!<)!A | %9
 (3GFE F2 z2 |!p! z2 !tenuto!C>(F B,2) | z2!<(! !tenuto!C>(F ^B,2)!<)! |!f! z2 [A,C]>a!<(! [Ac]2- | %13
 [Ac]>a !>![Ac]>a!<)! !>![Ac]2 |!p! z2 !tenuto!C>(F B,2) | z2!<(! !tenuto!C>(F ^B,2)!<)! | %16
!f! z2 [A,C]>a!<(! [Ac]2- | [Ac]>a !>![Ac]>a!<)! !>![Ac]2 | z2!p! ([C=DA]2 [B,DG]2- | %19
!<(! [B,DG]2 [B,DF]2 !>![Bdf]2)!<)! | e2- (e>c)(A>B) | (c>e)(c>A) c2 | z2 ([CDA]2 [B,DG]2- | %23
!<(! [B,DG]2 [B,DF]2 [Bdf]2)!<)! |!mf! e2- (e>c)(A>B) |!<(! (c>e)(c>A)!<)! [=GBc]2 | %26
!p![Q:1/4=130]"^Tempo rubato." z2 (defd) | z2!<(! (3cdc B2!<)! | z2!>(! (3cdc B2!>)! | %29
 z2 (3BaB A2 |!p! z2 (defd) | z2!<(! (3cdc B2!<)! | z2!>(! (3cdc B2!>)! | z2 (3BaB A2 | %34
!p! z2 ^d^efd | z2 ^efe^d | z2 (3^efe ^d2 | z2 (3^dc'd c2 | z2 ^d^efd | z2!<(! (3^efe d2!<)! | %40
 z2!<(! (3^efe ^d2!<)! | z2 (3^dc'd- c2 |[Q:1/4=110]"_poco rit." c^d^ef^^fg | z2 (3^dc'd- c2 | %44
 d^de^ef=g |[Q:1/4=120]"^A tempo I°." z2 (ga g2)!p! | z2 (3fga (3c'af |z2(gbga) | (3(gfe de f2) | %49
 z2"^cresc." GA G2- | G2 (3FGA (3cAF |!f! z2 GB GA | (3GF=E F2 !fermata!z2 || %53
[K:D][K:bass][Q:1/4=130]"^Risoluto."!f! z4 (D,>F,) | x6 |!p!!<(! z2 !arpeggio![Gea]4 | %56
 !arpeggio![Aea]4 !arpeggio![eae']2!<)! |[K:bass]!p! z4 (D,>F,) |[K:treble] x6 | %59
 z2 !arpeggio![Bea]4 | !arpeggio![Aea]4 !arpeggio![eae']2 | %61
"_poco     a    poco      cresc." z2 [FAe]2 [A=cf]2 | z2 [A=ce]2 [cea]2 | z2 [A=cg]2 [cea]2 | %64
 z2 [=ceg]2 [egc']2 | z2 [ceb]2 [egc']2 | z2 [egc']2 [gbe']2 |!f!!<(! z2 [^e^gb]2!<)! [gb^e']2 | %68
 z2 [=egb]2 [gb=e']2 | [CE]4 z2 |[K:bass]!f! z4 (D,>F,) |[K:treble] x6 |!p! z2 !arpeggio![Gea]4 | %73
 !arpeggio![Aea]4 !arpeggio![eae']2 |[K:bass]!pp! x4 (=F,>A,) |[K:treble] x4[K:treble] (=F>A) | %76
 z2 !arpeggio![dg=c']4 | !arpeggio![=cg=c']4 !arpeggio![gc'g']2 |!mf! z2 [^DFB]2 [FB^d]2 | %79
 z2 [^EB=d]2 [DEB]2 | z2 [^DFB]2 [FA^d]2 | z2 [DGBd]2 [^DAB^d]2 |"_dim." z2 [GBe]2 [EGB]2 | %83
 z2 [EG=c]2 [=CEG]2 |[K:bass]!p! z2 [E,A,=C]2 [G,A,^C]2 | z2 [D,F,A,]2 [F,A,D]2 | %86
[K:treble]!mf! a2- a>g a>g | e2- e>g e>g | a>b a>b a>g | e6 | [_Bd]6- | [Bd]6- | [Bd]6- | [Bd]6 | %94
!mf! a2- a>g a>g | e2- e>g e>g | a>b a>b a>g | e6 |!p! [_Bd]6- | [_Bd]6 | [_Bd]6- | [_Bd]6 | %102
 [=Bd]6- | [Bd]6 | (A>=F D>F A>B) | (d>B A>B d>=f) | (a>=f d>f a>f) | (d>^f a>f d>f) | %108
 (a>=f d>f a>f) | (d>=f a>f d>f) ||[K:A]!p! z2 (ga g2) | z2 (3(fga (3c'af) |z2(gbga) | %113
 (3(gfe de f2) | z2 (ga g2) | z2 (3(fga (3c'af) |!<(! z2 GB GA!<)! |!f! (3GFE F2 z2 | z6 | z6 | %120
!p![Q:1/4=120]"^Meno tempo" z2 (ga g2) | z2 (3(fga (3c'af) | z2 (gbga | (3gfe de f2) | %124
[Q:1/4=100]"^En retenant"!p! z2 (GA G2) | z2 (3(FGA (3cAF) |z2(GBGA | (3GFE DE F2) | %128
[K:bass]!pp! (3G,F,E, .D,.E, !tenuto!.[D,F,]2- | ([D,F,]4 [DF]2) | %130
 (3G,F,E, .D,.E, !tenuto!.[D,F,]2- | ([D,F,]4 [DF]2-) | [DF]6- | [DF]6 | %134
[Q:1/4=100]"^a tempo stringendo"!p! (3(G,F,[Q:1/4=105]"^T"E,"_cresc. molto" (3D,E,[Q:1/4=110]"^T"F, (3G,A,[Q:1/4=115]"^T"B, | %135
[K:treble] (3CD[Q:1/4=120]"^T"E (3FG[Q:1/4=125]"^T"A B/c/d/[Q:1/4=130]"^T"e/) | %136
[Q:1/4=150]"^Vivo"!f!!<(! f2 z2 [cfbc']2!<)! |!ff! [fc'f']2 [Fcf]2 z2 |] %138
V:2
!mf!{/B,,,} .B,, z !>![B,,F,]4 |{/B,,,} .B,, z !>![B,,F,]4 |{/B,,,} .B,, z [B,,F,]4 | %3
{/A,,,} .A,, z [A,,F,]4 |{/B,,,} .B,, z [B,,F,]2 [C,B,]2 | [D,A,]3 [A,,A,] [D,A,]2 | %6
{/B,,,} .B,, z [B,,F,]4 |{/A,,,} .A,, z [A,,F,]4 |{/B,,,} .B,, z [B,,F,]2 [C,B,]2 | %9
 [D,B,]2 [C,A,]2 z2 |{/F,,,} F,,6 | (C,4 D,2) | B,,,2 [F,,^D,]2 [F,^D]2- | [F,^D]2 [B,D]2 [F,D]2 | %14
{/F,,,} F,,6 | (C,4 D,2) | B,,,2 [F,,^D,]2 [F,^D]2- | [F,^D]2 [B,D]2 [F,D]2 | E,,,2 (E,,2 B,,2 | %19
 E,2 A,2 !>![G,DF]2) | z2 [A,CE]2 [G,CE]2 | [F,CE]2 [E,A,C]2 [^D,A,C]2 | E,,, z (E,,2 B,,2 | %23
 E,2 A,2 [G,DF]2) | z2 [A,,,A,,]2 E,2 | A,2 E,2 [A,E]2 | [D,,A,,] z [A,D]4 | [D,,A,,] z [A,D]4 | %28
 [D,,A,,] z [=A,D]4 | [D,,A,,] z D2 [CE]2 | [D,,A,,] z [A,D]4 | [D,,A,,] z [^G,D]4 | %32
 [D,,A,,] z [=A,D]4 | [D,,A,,] z D2 [CE]2 | C4 C2 | ^B,4 B,2 | ^B,4 B,2 | G,6 | C4 C2 | ^B,4 B,2 | %40
 =B,4 B,2 | G,6[K:treble] |[K:bass] C,2 z2 z2 | G,6[K:treble] |[K:bass] C,2 z2 z2 | %45
 (E,B,)[K:treble] [DFB]4 |[K:bass] (E,B,)[K:treble] [DFA]4 |[K:bass] (E,B,)[K:treble] [DFA]4 | %48
[K:bass] (E,B,)[K:treble] [DFA]4 |[K:bass] z2 ^B,2 =B,2 | [=C,^A,]2 [B,,=A,]4 | %51
 [B,,,B,,] z [B,,F,]2 [C,B,]2 | [D,B,]2 [C,A,]2 !fermata!z2 ||[K:D] !>!D,,2- (D,,>A,,) z2 | %54
 !>!A,2- (A,>[I:staff -1]B,)(D>F) |[I:staff +1][K:treble] !arpeggio![DEG]4 !arpeggio![CEG]2- | %56
 [CEG]2 !arpeggio![B,DG]2 !arpeggio![A,CG]2 |[K:bass] !>!D,,2- (D,,>A,,) z2 | %58
 A,2- (A,>[I:staff -1]B,)(D>F) |[I:staff +1][K:treble]!<(! !arpeggio![DEG]4 !arpeggio![CEG]2- | %60
 [CEG]2 !arpeggio![B,DG]2!<)! !arpeggio![A,CG]2 | C2- C>D E>F | (G>F) (G>F) E2 | E2- E>F G>A | %64
 (B>A) (B>A) G2 | G2- G>A B>c | d>c d>c B2 | d>c d>c B2 | d>c d>c B2 | %69
[K:bass][I:staff -1] (B,A,[I:staff +1]G,F, E,A,,) | !>!D,,2- (D,,>A,,) z2 | %71
 A,2- (A,>[I:staff -1]B,)(D>F) |[I:staff +1][K:treble] !arpeggio![DEG]4 !arpeggio![CEG]2- | %73
 [CEG]2 !arpeggio![B,DG]2 !arpeggio![A,CG]2 | =F,,2- (F,,>=C,) x2 | =C2- (C>D) x2 | %76
[K:treble] [=FG_B]4 [EGB]2- | [EGB]2 [D=F_B]2 [=CEB]2 |[K:bass] B,2- (B,>A,) (B,>A,) | %79
 G,2- (G,>A,) (G,>A,) | B,2- B,>A, B,>A, | B,2- B,>A, B,>A, | E,2- E,>D, E,>D, | %83
 =C,2- C,>_B,, C,>B,, | A,,2- A,,>G,, F,,>E,, | D,,6 |[K:treble] [EG]6- | [EG]6 | [EG]6- | [EG]6 | %90
[K:bass] [_B,D]6- | [B,D]6 | [_B,D]6- | [B,D]6 |[K:treble] [EG]6- | [EG]6 | [EG]6- | [EG]6 | %98
[K:bass] [_B,D]6- | [_B,D]6 | [B,D]6 | [B,D]6 | [A,D]6- | [A,D]6 | [=F,A,B,]6 | [A,B,D=F]6 | %106
[K:treble] [D-=FA-B-]6 | [D^FAB]6 | [D=FAB]6 | z6 ||[K:A][K:bass] F, z[K:treble] [D^EB]4 | %111
[K:bass] F, z[K:treble] [DFA]4 |[K:bass] F, z[K:treble] [D^EB]4 |[K:bass] F, z[K:treble] [DFA]4 | %114
[K:bass] F, z[K:treble] [D^EB]4 |[K:bass] F, z[K:treble] [DFA]4 |[K:bass] z2 B,4 | %117
 [D,B,]2 [C,A,]2 (C2- |"^dim." C6 | D4 ^D2) |[K:treble] z2 B4 | z2 A4 | z2 B4 | z2 A4 | %124
[K:bass] z2 B,4 | z2 A,4 | z2 B,4 | z2 A,4 | z2 z2 A,,2- | (A,,2 A,4) | z2 z2 A,,2- | (A,,2 A,4-) | %132
 A,2 z2 z2 | z6 | [B,,,B,,]6- | [B,,,B,,]6- | [B,,,B,,]2 [A,,,A,,]2 [G,,,G,,]2 | %137
 [F,,,F,,]2 [C,A,C]2 z2 |] %138
V:3
 x6 | x6 | x2 C4 | x2 C4 | x2 D2 ^E2 | D2 x4 | x2 D4 | x2 C4 | x2 D2 ^E2 | D2 C2 x2 | x2 A,2 G,2 | %11
 x2 A,2 A,2 | x6 | x6 | x2 A,2 G,2 | x2 A,2 A,2 | x6 | x6 | x6 | x6 | x6 | x2 G2 F2 | x6 | x6 | %24
 x6 | x6 | x2 F4 | x2 ^E4 | x2 ^E4 | x6 | x2 F4 | x2 ^E4 | x2 =E4 | x6 | x2 ^A4 | x2 =A4 | x2 G4 | %37
 x2 F2 ^E2 | x2 ^A4 | x2 =A4 | x2 G4 | x6 | x6 | x6 | x6 | x2 ^d4 | x2 d4 | x2 d4 | z2 d4 | %49
 x2 F2 ^E2 | =E2 ^D4 | x2 =D2 ^E2 | D2 C2 x2 ||[K:D][K:bass] x6 | x6 | x6 | x6 |[K:bass] x6 | %58
[K:treble] x6 | x6 | x6 | x6 | x6 | x6 | x6 | x6 | x6 | x6 | x6 | x6 |[K:bass] x6 |[K:treble] x6 | %72
 x6 | x6 |[K:bass] x6 |[K:treble] x4[K:treble] x2 | x6 | x6 | x6 | x6 | x6 | x6 | x6 | x6 | %84
[K:bass] x6 | x6 |[K:treble] =c6- | c6- | c6- | c6 | G2- G>=F G>F | D2- D>=F D>F | GA_BAG=F | x6 | %94
 =c6- | c6 | c6- | c6 | G2- G>=F G>F | D2- D>=F D>F | GA_BAGF | D2- D>=F D>F | GA=BAG=F | %103
 D2- D>=F D>F | x6 | x6 | x6 | x6 | x6 | x6 ||[K:A] x2 d4 | x2 d4 | x2 d4 | x2 d4 | x2 d4 | x2 d4 | %116
 x2 F2 ^E2 | D2 C2 x2 | x6 | x6 | x2 d4 | x2 d4 | x2 d4 | x2 d4 | x2 D4 | x2 D4 | x2 D4 | x2 D4 | %128
[K:bass] x6 | x6 | x6 | x6 | x6 | x6 | x6 |[K:treble] x6 | x6 | x6 |] %138
V:4
 x6 | x6 | x6 | x6 | x6 | x6 | x6 | x6 | x6 | F,,4 x2 | x6 | F,,6 | x6 | x6 | x6 | F,,6 | x6 | x6 | %18
 x6 | x6 | x6 | x6 | x6 | x6 | x6 | x6 | x6 | x6 | x6 | x2 =G,4 | x6 | x6 | x6 | x2 =G,4 | x2 F4 | %35
 x2 F4 | x2 F4 | x6 | z2 F4 | z2 F4 | x2 F4 | x2[K:treble] B4 |[K:bass] x6 | x2[K:treble] B4 | %44
[K:bass] x6 | x2[K:treble] x4 |[K:bass] x2[K:treble] x4 |[K:bass] x2[K:treble] x4 | %48
[K:bass] x2[K:treble] x4 |[K:bass] D,4 C,2 | x6 | x6 | F,,4 x2 ||[K:D] x6 | x2 A,2 x2 | %55
[K:treble] x6 | x6 |[K:bass] x6 | x2 A,2 x2 |[K:treble] x6 | x6 | x6 | x6 | x6 | x6 | x6 | x6 | %67
 x6 | x6 |[K:bass] x6 | x6 | x2 A,2 x2 |[K:treble] x6 | x6 | x6 | x6 |[K:treble] x6 | x6 | %78
[K:bass] x6 | x6 | x6 | x6 | B,6 | G,6 | A,,6- | A,,6 |[K:treble] D6- | D2 A,2 D2 | D6- | %89
 D2 A,2 D2 |[K:bass] =F,6- | F,2 _B,,2 =F,2 | =F,6- | F,2 _B,,2 =F,2 |[K:treble] D6- | D2 A,2 D2 | %96
 D6- | D2 A,2 D2 |[K:bass] =F,6 | =F,2 _B,,2 F,2 | _F,6 | =F,2 B,,2 F,2 | =F,6- | =F,2 B,,2 F,2 | %104
 x6 | x6 |[K:treble] x6 | x6 | x6 | x6 ||[K:A][K:bass] x2[K:treble] x4 |[K:bass] x2[K:treble] x4 | %112
[K:bass] x2[K:treble] x4 |[K:bass] x2[K:treble] x4 |[K:bass] x2[K:treble] x4 | %115
[K:bass] x2[K:treble] x4 |[K:bass] D,4 C,2 | F,,4 x2 | x6 | x6 |[K:treble] (E4 B,2) | (E4 B,2) | %122
 (E4 B,2) | (E4 B,2) |[K:bass] E,4 B,,2 | E,4 B,,2 | E,4 B,,2 | D,4 A,,2 | D,,6- | D,,6 | D,,6- | %131
 D,,6 | x6 | x6 | x6 | x6 | x6 | x6 |] %138
V:5
 x6 | x6 | x6 | x6 | x6 | x6 | x6 | x6 | x6 | x6 | x6 | x6 | x6 | x6 | x6 | x6 | x6 | x6 | x6 | %19
 x6 | x6 | x6 | x6 | x6 | x6 | x6 | x6 | x6 | x6 | x6 | x6 | x6 | x6 | x6 | x6 | x6 | x6 | x2 B4 | %38
 x6 | x6 | x6 | x6 | x6 | x6 | x6 | x6 | x6 | x6 | x6 | x6 | x6 | x6 | x6 ||[K:D][K:bass] x6 | x6 | %55
 x6 | x6 |[K:bass] x6 |[K:treble] x6 | x6 | x6 | x6 | x6 | x6 | x6 | x6 | x6 | x6 | x6 | x6 | %70
[K:bass] x6 |[K:treble] x6 | x6 | x6 |[K:bass] x6 |[K:treble] x4[K:treble] x2 | x6 | x6 | x6 | x6 | %80
 x6 | x6 | x6 | x6 |[K:bass] x6 | x6 |[K:treble] x6 | x6 | x6 | x6 | x6 | x6 | x6 | x6 | x6 | x6 | %96
 x6 | x6 | x6 | x6 | x6 | x6 | x6 | x6 | x6 | x6 | x6 | x6 | x6 | x6 ||[K:A] x6 | x6 | x6 | x6 | %114
 x6 | x6 | x6 | x6 | x6 | x6 | x6 | x6 | x6 | x6 | x6 | x6 | x6 | x6 |[K:bass] x6 | x6 | x6 | x6 | %132
 x6 | x6 | x6 |[K:treble] x6 | x6 | x6 |] %138
V:6
 x6 | x6 | x6 | x6 | x6 | x6 | x6 | x6 | x6 | x6 | x6 | x6 | x6 | x6 | x6 | x6 | x6 | x6 | x6 | %19
 x6 | x6 | x6 | x6 | x6 | x6 | x6 | x6 | x6 | x6 | x6 | x6 | x6 | x6 | x6 | x6 | x6 | x6 | x6 | %38
 x6 | x6 | x6 | x2[K:treble] F2 ^E2 |[K:bass] x6 | x2[K:treble] F2 ^E2 |[K:bass] x6 | %45
 x2[K:treble] x4 |[K:bass] x2[K:treble] x4 |[K:bass] x2[K:treble] x4 |[K:bass] x2[K:treble] x4 | %49
[K:bass] x6 | x6 | x6 | x6 ||[K:D] x6 | x6 |[K:treble] x6 | x6 |[K:bass] x6 | x6 |[K:treble] x6 | %60
 x6 | x6 | x6 | x6 | x6 | x6 | x6 | x6 | x6 |[K:bass] x6 | x6 | x6 |[K:treble] x6 | x6 | x6 | x6 | %76
[K:treble] x6 | x6 |[K:bass] x6 | x6 | x6 | x6 | x6 | x6 | x6 | x6 |[K:treble] x6 | x6 | x6 | x6 | %90
[K:bass] x6 | x6 | x6 | x6 |[K:treble] x6 | x6 | x6 | x6 |[K:bass] x6 | x6 | x6 | x6 | x6 | x6 | %104
 x6 | x6 |[K:treble] x6 | x6 | x6 | x6 ||[K:A][K:bass] x2[K:treble] x4 |[K:bass] x2[K:treble] x4 | %112
[K:bass] x2[K:treble] x4 |[K:bass] x2[K:treble] x4 |[K:bass] x2[K:treble] x4 | %115
[K:bass] x2[K:treble] x4 |[K:bass] x6 | x6 | x6 | x6 |[K:treble] x6 | x6 | x6 | x6 |[K:bass] x6 | %125
 x6 | x6 | x6 | x6 | x6 | x6 | x6 | x6 | x6 | x6 | x6 | x6 | x6 |] %138

